!!!OTL: 896. Ehestandsleiden einer jungen Frau.
!!!ARE: Europa, Mitteleuropa, Deutschland, Westfalen
!!!SCT: E0896
!!!TXL: @@NDS
!!!YEM: Copyright 1995, estate of Helmut Schaffrath.
**kern	**text
*ICvox	*
*M2/4	*
*k[b-]	*
*F:	*
!LO:TX:a:t=Weſtſäliſch.	!
{16c	De
=1	=1
8c	Jaôr
8f	dao
8f	was
8f	'k'ne
=2	=2
8e	ſi-
8g	-ne
8f	Brût,
8r}	.
=3	=3
{8e	trei-
16gL	-di-
16eJ	-del-
8f	-tey!
16r}	.
{16g	nu
=4	=4
8g	gaut
8g	mi_de
8g	Knüppels
8g	.
=5	=5
8e	üm
8d	de
8c	Hût,
8r}	.
=6	=6
{8d	trei-
16dL	-di-
16eJ	del-
8c	-tey,
8r}	.
=7	=7
{8d	drei-
16d	-di-
16e	-del-
8f	-dit-
8d	-ken
=8	=8
8c	dol-
8e	-la-
8f	-la!
16r}	.
==	==
!!!AGN: Ehestands - Lied, Klage +++ 262: Laenge angepasst. +++
!!!ONB: ESAC (Essen Associative Code) Database: ERK2
!!!AMT: simple duple
!!!AIN: vox
!!!EED: Helmut Schaffrath
!!!EEV: 1.0
!!!GTL: Hochzeits- und Ehrstandslieder, nebst Nonnenklagen
!!!URL-scan: https://rosdok.uni-rostock.de/mcrviewer/recordIdentifier/rosdok_ppn745177662/iview2/phys_0690.iview2?x=193.8995864193107&y=1320.6164538939483&scale=0.7029437510502773&rotation=0&layout=singlePageLayout
!!!ENC: Anna Maria Matuszewska
!!!EEV: 2024/12/18
*-	*-
